svgs/regular/building-wheat.svg

<svg xmlns="http://www.w3.org/2000/svg" viewBox="0 0 640 512"><!--! Font Awesome Pro 6.6.0 by @fontawesome - https://fontawesome.com License - https://fontawesome.com/license (Commercial License) Copyright 2024 Fonticons, Inc. --><path d="M320 48c8.8 0 16 7.2 16 16l0 384c0 8.8-7.2 16-16 16l-80 0 0-64c0-26.5-21.5-48-48-48s-48 21.5-48 48l0 64-80 0c-8.8 0-16-7.2-16-16L48 64c0-8.8 7.2-16 16-16l256 0zM64 0C28.7 0 0 28.7 0 64L0 448c0 35.3 28.7 64 64 64l256 0c35.3 0 64-28.7 64-64l0-384c0-35.3-28.7-64-64-64L64 0zm40 88c-8.8 0-16 7.2-16 16l0 48c0 8.8 7.2 16 16 16l48 0c8.8 0 16-7.2 16-16l0-48c0-8.8-7.2-16-16-16l-48 0zm112 16l0 48c0 8.8 7.2 16 16 16l48 0c8.8 0 16-7.2 16-16l0-48c0-8.8-7.2-16-16-16l-48 0c-8.8 0-16 7.2-16 16zM104 216c-8.8 0-16 7.2-16 16l0 48c0 8.8 7.2 16 16 16l48 0c8.8 0 16-7.2 16-16l0-48c0-8.8-7.2-16-16-16l-48 0zm112 16l0 48c0 8.8 7.2 16 16 16l48 0c8.8 0 16-7.2 16-16l0-48c0-8.8-7.2-16-16-16l-48 0c-8.8 0-16 7.2-16 16zm424-40l-16 0c-44.2 0-80 35.8-80 80l0 16 16 0c44.2 0 80-35.8 80-80l0-16zm0 128l0-16-16 0c-44.2 0-80 35.8-80 80l0 16 16 0c44.2 0 80-35.8 80-80zm0 112l0-16-16 0c-44.2 0-80 35.8-80 80l0 16 16 0c44.2 0 80-35.8 80-80zM512 496c0-44.2-35.8-80-80-80l-16 0 0 16c0 44.2 35.8 80 80 80l16 0 0-16zm0-96l0-16c0-44.2-35.8-80-80-80l-16 0 0 16c0 44.2 35.8 80 80 80l16 0zm0-128c0-44.2-35.8-80-80-80l-16 0 0 16c0 44.2 35.8 80 80 80l16 0 0-16zM528 32c-13.3 0-24 10.7-24 24l0 104c0 13.3 10.7 24 24 24s24-10.7 24-24l0-104c0-13.3-10.7-24-24-24zm96 64c0-13.3-10.7-24-24-24s-24 10.7-24 24l0 32c0 13.3 10.7 24 24 24s24-10.7 24-24l0-32zM456 72c-13.3 0-24 10.7-24 24l0 32c0 13.3 10.7 24 24 24s24-10.7 24-24l0-32c0-13.3-10.7-24-24-24z"/></svg>

<svg xmlns="http://www.w3.org/2000/svg" viewBox="0 0 640 512"><!--! Font Awesome Pro 6.4.0 by @fontawesome - https://fontawesome.com License - https://fontawesome.com/license (Commercial License) Copyright 2023 Fonticons, Inc. --><path d="M320 48c8.8 0 16 7.2 16 16V448c0 8.8-7.2 16-16 16H240V400c0-26.5-21.5-48-48-48s-48 21.5-48 48v64H64c-8.8 0-16-7.2-16-16V64c0-8.8 7.2-16 16-16H320zM64 0C28.7 0 0 28.7 0 64V448c0 35.3 28.7 64 64 64H320c35.3 0 64-28.7 64-64V64c0-35.3-28.7-64-64-64H64zm40 88c-8.8 0-16 7.2-16 16v48c0 8.8 7.2 16 16 16h48c8.8 0 16-7.2 16-16V104c0-8.8-7.2-16-16-16H104zm112 16v48c0 8.8 7.2 16 16 16h48c8.8 0 16-7.2 16-16V104c0-8.8-7.2-16-16-16H232c-8.8 0-16 7.2-16 16zM104 216c-8.8 0-16 7.2-16 16v48c0 8.8 7.2 16 16 16h48c8.8 0 16-7.2 16-16V232c0-8.8-7.2-16-16-16H104zm112 16v48c0 8.8 7.2 16 16 16h48c8.8 0 16-7.2 16-16V232c0-8.8-7.2-16-16-16H232c-8.8 0-16 7.2-16 16zm424-40H624c-44.2 0-80 35.8-80 80v16h16c44.2 0 80-35.8 80-80V192zm0 128V304H624c-44.2 0-80 35.8-80 80v16h16c44.2 0 80-35.8 80-80zm0 112V416H624c-44.2 0-80 35.8-80 80v16h16c44.2 0 80-35.8 80-80zM512 496c0-44.2-35.8-80-80-80H416v16c0 44.2 35.8 80 80 80h16V496zm0-96V384c0-44.2-35.8-80-80-80H416v16c0 44.2 35.8 80 80 80h16zm0-128c0-44.2-35.8-80-80-80H416v16c0 44.2 35.8 80 80 80h16V272zM528 32c-13.3 0-24 10.7-24 24V160c0 13.3 10.7 24 24 24s24-10.7 24-24V56c0-13.3-10.7-24-24-24zm96 64c0-13.3-10.7-24-24-24s-24 10.7-24 24v32c0 13.3 10.7 24 24 24s24-10.7 24-24V96zM456 72c-13.3 0-24 10.7-24 24v32c0 13.3 10.7 24 24 24s24-10.7 24-24V96c0-13.3-10.7-24-24-24z"/></svg>
